X:480
T: Con Carthy's
S: "Johnny O'Leary of Sliabh Luachra" (#13)
Z: B.Black
Q: 350
L: 1/8
M: 12/8
R: slide
K: D
B2A Bcd B2A F2A|B2A Bcd e3 e2d|
B2A Bcd B2A F2A|AGF D2F E3 E3 :|
f2e dcd B2A d2e|f2e dcd e3 e3|
f2e dcd B2A d2B|AFA D2F E3 E3 :|
